X:2519
T:High G Throw Scale (vili)
O:Kevin's Tune Generator
Q:1/4=78
K:HP
M:4/4
L:1/4
%%MIDI gracedivider 4
%%MIDI gchord
%%MIDI beatstring 
[|: G {gf}g A {gf}g | B {gf}g c {gf}g |   d {gf}g e {gf}g | f {gf}g  f {gf}g |   e {gf}g d {gf}g | c {gf}g B {gf}g | A {gf}g G {gf}g :|]
w:
w: EM vili EN vili | O vili  O vili |  A  vili E  vili | VE vili  VE vili    |  E  vili A  vili | O vili  O vili | EN vili EM vili |
|: G>{gf}g A>{gf}g | B>{gf}g c>{gf}g |  d>{gf}g e>{gf}g | f>{gf}g f>{gf}g | 
w: EM vili EN vili | O vili  O vili |A  vili E  vili | VE vili  VE vili |
|  e>{gf}g d>{gf}g | c>{gf}g B>{gf}g |  A>{gf}g G>{gf}g :|
w: E  vili A  vili | O vili  O vili |EN vili EM vili :|
|: G<{gf}g A<{gf}g | B<{gf}g c<{gf}g |  d<{gf}g e<{gf}g | f<{gf}g f<{gf}g | 
w: EM vili EN vili | O vili  O vili |A  vili E  vili | VE vili  VE vili |
|  e<{gf}g d<{gf}g | c<{gf}g B<{gf}g |  A<{gf}g G<{gf}g :|
w: E  vili A  vili | O vili  O vili |EN vili EM vili :|
W:
W:
W:
T:High A Throw Scale (dili)
O:Kevin's Tune Generator
Q:1/4=78
K:HP
M:4/4
L:1/4
%%MIDI gracedivider 4
%%MIDI gchord
%%MIDI beatstring 
|: G {ag}a A {ag}a | B {ag}a c {ag}a | d {ag}a e {ag}a | f {ag}a  g {ag}a  |
w: EM dili EN dili | O  dili O dili  | A dili  E dili  | VE dili  DI dili |
 | g {ag}a  f  {ag}a | e {ag}a d {ag}a | c {ag}a B {ag}a | A {ag}a  G {ag}a :|
w: DI dili VE  dili  | E dili  A dili  | O dili  O dili  | EN dili  EM dili :|


